!!!COM:	Bach, Johann Sebastian
!!!CDT:	1685/02/21/-1750/07/28/
!!!OTL@@DE:	Komm, heiliger Geist, Herre Gott
!!!SCT:	BWV 226
!!!PC#:	69
!!!AGN:	chorale
**kern	**kern	**kern	**kern	**chordsymbol
*ICvox	*ICvox	*ICvox	*ICvox	*
*Ibass	*Itenor	*Ialto	*Isoprn	*
*I"Bass	*I"Tenor	*I"Alto	*I"Soprano	*
*clefF4	*clefGv2	*clefG2	*clefG2	*
*k[f#]	*k[f#]	*k[f#]	*k[f#]	*
*G:	*G:	*G:	*G:	*G:
*M4/4	*M4/4	*M4/4	*M4/4	*M4/4
*met(c)	*met(c)	*met(c)	*met(c)	*met(c)
*MM100	*MM100	*MM100	*MM100	*MM100
4G	4B	4g	4dd	GM
=1	=1	=1	=1	=1
4C	8cL	4g	4ee	CMM
.	8BJ	.	.	CMM
4D	4A	4f#	8ddL	DMm
.	.	.	8ccJ	DMm
4E	4G	4g	8bL	Em
.	.	.	8ccJ	CM
8BBL	4G	8dL	4dd	GM
8CJ	.	8eJ	.	E(mm)
=2	=2	=2	=2	=2
2D;	2d;	2f#;	2a;	DM
8GL	4d	4g	4b	GMM
8F#J	.	.	.	GMM
4E	4G	4g	4cc#	C#d
=3	=3	=3	=3	=3
2D;	2A;	2f#;	2dd;	DM
4r	4ry	4ry	4r	4
4BB	4G	4g	4dd	GM
=4	=4	=4	=4	=4
4C	8cL	4g	4ee	CMM
.	8BJ	.	.	CMM
4D	8AL	8f#L	4dd	DM
.	8GJ	8eJ	.	E(mm)
8CL	8F#L	4d	8aL	DMm
8BBJ	8GJ	.	8bJ	GM
4AA	4C	8eL	4cc	Am
.	.	8f#J	.	F#d
=5	=5	=5	=5	=5
8BBL	4D	4g	4b	GM
8CJ	.	.	.	GM
4D	8dL	4f#	4a	DMm
.	8cJ	.	.	DMm
4GG;	4B;	4d;	4g;	GM
4G	4B	4d	4g	GM
=6	=6	=6	=6	=6
4F#	4A	4d	8aL	DM
.	.	.	8bJ	Bmm
8EL	8GL	4e	4cc	CM
8F#J	8AJ	.	.	F#dm
4G	4B	8dL	8bL	GM
.	.	8eJ	8ccJ	CMM
8F#L	8AL	[4f#	[4dd	DM
8EJ	8GJ	.	.	DM
=7	=7	=7	=7	=7
8F#L	4A	8f#L]	4dd]	DM
8E	.	8gJ	.	DM
8D	4d	8f#L	4a	DMM
8C#J	.	8eJ	.	DMM
8BBL	4d	8dL	8gL	GMM
8GGJ	.	8BJ	8f#J	GMM
4AA	8AL	4c#	4e	AMm
.	8GJ	.	.	AMm
=8	=8	=8	=8	=8
2D;	2F#;	2A;	2d;	DM
4r	4ry	4ry	4r	4
8DL	4F#	4A	4d	DMm
8CnXJ	.	.	.	DMm
=9	=9	=9	=9	=9
8BBL	4G	8dL	4g	GM
8C	.	8eJ	.	CM
8BB	4c	4f#	4a	F#d
8AAJ	.	.	.	F#d
4GG	8dL	4.g	8bL	GM
.	8cJ	.	8ccJ	C(P5)
8GL	8BL	.	[4dd	GM
8FJ	8AJ	8a	.	FM(?5)
=10	=10	=10	=10	=10
4E	8G#L	4.b	4dd]	EMm
.	8F#XJ	.	.	EMm
4AA	4E	.	4cc	Am
.	.	8a	.	Am
4BB	4D#	8gL	4b	BM
.	.	8f#J	.	BM
4C	4E	4e	4a	Am
=11	=11	=11	=11	=11
2BB;	2F#;	2d#;	2b;	BM
4r	4ry	4ry	4r	4
4E	8GnXL	4g	8bL	Em
.	8AJ	.	8ccJ	Amm
=12	=12	=12	=12	=12
4B	4B	8f#L	4ddnX	Bm
.	.	8g#J	.	G#d
8AL	4c#	4a	4ee	AMm
8GJ	.	.	.	AMm
8F#L	4d	8aL	4dd	DM
8EJ	.	8gJ	.	E(mm)
4D	8dL	8f#L	4a	DMm
.	8cJ	8eJ	.	DMm
=13	=13	=13	=13	=13
8GL	8BL	4d	4b	GM
8F#J	8AJ	.	.	Bmm
4E	4G	4e	4cc#	C#d
4D;	4A;	4f#;	4dd;	DM
4G	4B	8gL	4dd	GMM
.	.	8f#J	.	GMM
=14	=14	=14	=14	=14
4CnX	4cnX	8eL	4ee	CM(?5)
.	.	8f#J	.	F#(dm)
8BBL	4d	4g	4dd	GM
8CJ	.	.	.	GM
4D	4d	4f#	8aL	DM
.	.	.	8bJ	Bm
8EL	8GL	4e	4ccnX	CM
8F#J	8AJ	.	.	F#dm
=15	=15	=15	=15	=15
8GL	8BL	8dL	4b	GM
8CJ	8GJ	8eJ	.	CMM
4D	8dL	4f#	4a	DMm
.	8cJ	.	.	DMm
4GG;	4B;	4d;	4g;	GM
8CL	4c	4e	4g	CMM
8BBJ	.	.	.	CMM
=16	=16	=16	=16	=16
4AA	8cL	4e	8aL	Am
.	8BJ	.	8bJ	Am
4A	4A	8eL	4cc	Am
.	.	8f#J	.	F#d
4E	8BL	[2g	8bL	Em
.	8A	.	8ccJ	Amm
8BBL	8G	.	[4dd	GM
8CJ	8AJ	.	.	GM
=17	=17	=17	=17	=17
8DL	8BL	4g]	4dd]	GM
8E	8c#J	.	.	E(mm)
8F#	4d	4f#	4a	DM
8DJ	.	.	.	DM
8BL	4d	8gL	8gL	GMM
8GJ	.	8dJ	8f#J	GMM
4A	8AL	8dL	4e	AMm
.	8GJ	8c#J	.	AMm
=18	=18	=18	=18	=18
2D;	2F#;	2A;	2d;	DM
4r	4ry	4ry	4r	4
4BB	4F#	8dL	4d	Bm
.	.	8cnXJ	.	Bm
=19	=19	=19	=19	=19
4E	8GL	8BL	4g	Em
.	8cJ	8eJ	.	CM
4F#	8BL	8dL	4a	DMm
.	8AJ	8cJ	.	DMm
8GL	4.G	4.B	8bL	GM(?5)
8AJ	.	.	8ccJ	GM(?5)
8BL	.	.	[4dd	GM
8AJ	8A	16cLL	.	D(P5)
.	.	16dJJ	.	D(P5)
=20	=20	=20	=20	=20
8G#L	4.B	4e	4dd]	EMm
8EJ	.	.	.	EMm
4A	.	4e	4cc	Am
.	8A	.	.	Am
8EL	8GL	4e	4b	Emm
8DJ	8F#J	.	.	Emm
8CL	4E	8eL	4a	Am
8BBJ	.	8dJ	.	Am
=21	=21	=21	=21	=21
8CL	2A	2c	4e	Am
8AAJ	.	.	.	Am
4D	.	.	4f#	DMm
4GG;	4G;	4B;	4g;	GM(?5)
4D	4F#	4d	4a	DM
=22	=22	=22	=22	=22
8GGL	2.G	[2d	4b	GM
8AAJ	.	.	.	GM
4BB	.	.	4g	GM
2C	.	8dL]	2e	CM
.	.	8BJ	.	CM
.	8GL	4c	.	CM
.	8F#J	.	.	F#(dm)
=23	=23	=23	=23	=23
4G;	4G;	4G;	4d;	G(P5)
4F#	2A	2d	8aL	DM
.	.	.	16bL	Bmm
.	.	.	16ccJJ	Bmm
8GL	.	.	2b	Bmm
8F#J	.	.	.	Bmm
8EL	[4G	[4e	.	Emm
8DJ	.	.	.	Emm
=24	=24	=24	=24	=24
8CL	4G]	4e]	2a	Amm
8AAJ	.	.	.	Amm
4D	16F#LL	8dL	.	DMm
.	16EJ	.	.	DMm
.	8F#J	8cJ	.	DMm
4GG;	4D;	4B;	4g;	GM
==	==	==	==	==
*-	*-	*-	*-	*-
!!!hum2abc: -Q ''
!!!title: @{PC#}. @{OTL@@DE}
!!!YOR1: 371 vierstimmige Choralges&auml;nge von Johann Sebastian Bach, 
!!!YOR2: 4th ed. by Alfred D&ouml;rffel (Leipzig: Breitkopf und H&auml;rtel, 
!!!YOR2: c.1875). 178 pp. Plate "V.A.10".  reprint: J.S. Bach, 371 Four-Part 
!!!YOR4: Chorales (New York: Associated Music Publishers, Inc., c.1940).
!!!SMS: B&H, 4th ed, Alfred D&ouml;rffel, c.1875, plate V.A.10
!!!EED:  Craig Stuart Sapp
!!!EEV:  2009/05/22
!!! **chordsymbol annotations generated by the FlexibleChoraleHarmonicAnalysis package.
!!! Condit-Schultz, Ju, and Fujinaga, ISMIR (2018)
!!! Created on Sat Mar 02 11:23:32 2019
